X:039
L:1/16
M:2/4
K:F
c2 | cfaf gcde | fegf afga | bgaf gdbg | fedc cBAB |
cfaf gcde | fAaf gcde | {/g}fefd cBAG | F2F2 F2 ::
cB | Acfe dcBA | BGgf edcB | Acag fedc | cBAB G2cB |

